view/frontend/web/svg/flags/aq.svg

<svg width="24" height="24" viewbox="0 0 20 15" viewBox="0 0 20 15" fill="none" xmlns="http://www.w3.org/2000/svg">
<g clip-path="url(#clip0_270_61032)">
<rect width="20" height="15" fill="white"/>
<path fill-rule="evenodd" clip-rule="evenodd" d="M0 0V15H20V0H0Z" fill="#5196ED"/>
<mask id="mask0_270_61032" style="mask-type:luminance" maskUnits="userSpaceOnUse" x="0" y="0" width="20" height="15">
<path fill-rule="evenodd" clip-rule="evenodd" d="M0 0V15H20V0H0Z" fill="white"/>
</mask>
<g mask="url(#mask0_270_61032)">
<g filter="url(#filter0_d_270_61032)">
<path fill-rule="evenodd" clip-rule="evenodd" d="M5.44835 4.9336C5.44835 4.9336 6.73842 5.6414 6.91784 5.83717C7.09718 6.03299 7.38465 6.75202 7.83296 6.3454C8.28134 5.93891 8.72964 6.25494 8.72964 5.60731C8.72964 4.95974 9.39905 3.45753 10.3704 3.83396C11.3418 4.21036 12.1404 3.97489 12.3645 4.12538C12.5887 4.27596 13.1267 5.02376 13.5451 5.02376C13.9637 5.02376 14.1727 5.46044 14.2027 6.09298C14.2325 6.72556 14.0683 6.78598 14.4567 6.86139C14.8454 6.93661 14.9947 7.22289 14.8006 7.59929C14.6063 7.97582 14.6211 7.81014 14.651 8.20173C14.681 8.59331 14.2626 10.9025 12.9771 11.1286C11.6918 11.3544 10.4735 11.234 10.8024 10.7971C11.1312 10.3605 11.5863 9.85791 10.9139 9.7525C10.2412 9.64695 9.81737 9.55721 9.14475 9.73789C8.47214 9.91861 7.76978 10.2047 7.35114 9.66261C6.93275 9.1204 7.02254 8.72881 6.67877 8.47276C6.33509 8.21677 5.91646 8.26191 6.26038 7.76491C6.60391 7.26793 6.88786 7.4535 6.60391 7.06196C6.32018 6.67048 5.24834 6.49989 5.24834 6.10845C5.24834 5.71671 4.56659 4.85827 5.44835 4.9336Z" fill="white"/>
<path fill-rule="evenodd" clip-rule="evenodd" d="M5.44835 4.9336C5.44835 4.9336 6.73842 5.6414 6.91784 5.83717C7.09718 6.03299 7.38465 6.75202 7.83296 6.3454C8.28134 5.93891 8.72964 6.25494 8.72964 5.60731C8.72964 4.95974 9.39905 3.45753 10.3704 3.83396C11.3418 4.21036 12.1404 3.97489 12.3645 4.12538C12.5887 4.27596 13.1267 5.02376 13.5451 5.02376C13.9637 5.02376 14.1727 5.46044 14.2027 6.09298C14.2325 6.72556 14.0683 6.78598 14.4567 6.86139C14.8454 6.93661 14.9947 7.22289 14.8006 7.59929C14.6063 7.97582 14.6211 7.81014 14.651 8.20173C14.681 8.59331 14.2626 10.9025 12.9771 11.1286C11.6918 11.3544 10.4735 11.234 10.8024 10.7971C11.1312 10.3605 11.5863 9.85791 10.9139 9.7525C10.2412 9.64695 9.81737 9.55721 9.14475 9.73789C8.47214 9.91861 7.76978 10.2047 7.35114 9.66261C6.93275 9.1204 7.02254 8.72881 6.67877 8.47276C6.33509 8.21677 5.91646 8.26191 6.26038 7.76491C6.60391 7.26793 6.88786 7.4535 6.60391 7.06196C6.32018 6.67048 5.24834 6.49989 5.24834 6.10845C5.24834 5.71671 4.56659 4.85827 5.44835 4.9336Z" fill="#F5F8FB"/>
</g>
</g>
</g>
<defs>
<filter id="filter0_d_270_61032" x="3.99692" y="2.77429" width="11.8885" height="9.46582" filterUnits="userSpaceOnUse" color-interpolation-filters="sRGB">
<feFlood flood-opacity="0" result="BackgroundImageFix"/>
<feColorMatrix in="SourceAlpha" type="matrix" values="0 0 0 0 0 0 0 0 0 0 0 0 0 0 0 0 0 0 127 0" result="hardAlpha"/>
<feOffset/>
<feGaussianBlur stdDeviation="0.5"/>
<feColorMatrix type="matrix" values="0 0 0 0 0.0941176 0 0 0 0 0.32549 0 0 0 0 0.639216 0 0 0 0.43 0"/>
<feBlend mode="normal" in2="BackgroundImageFix" result="effect1_dropShadow_270_61032"/>
<feBlend mode="normal" in="SourceGraphic" in2="effect1_dropShadow_270_61032" result="shape"/>
</filter>
<clipPath id="clip0_270_61032">
<rect width="20" height="15" fill="white"/>
</clipPath>
</defs>
</svg>

<svg width="24" height="24" viewbox="0 0 20 15" fill="none" xmlns="http://www.w3.org/2000/svg">
  <mask id="a" maskUnits="userSpaceOnUse" x="0" y="0" width="20" height="15">
    <path fill="#fff" d="M0 0h20v15H0z"/>
  </mask>
  <g mask="url(#a)">
    <path fill-rule="evenodd" clip-rule="evenodd" d="M0 0v15h20V0H0z" fill="#5196ED"/>
    <mask id="b" maskUnits="userSpaceOnUse" x="0" y="0" width="20" height="15">
      <path fill-rule="evenodd" clip-rule="evenodd" d="M0 0v15h20V0H0z" fill="#fff"/>
    </mask>
    <g filter="url(#AQ_-_Antarctica__filter0_d)" fill-rule="evenodd" clip-rule="evenodd" mask="url(#b)">
      <path d="M5.448 4.934s1.29.707 1.47.903c.18.196.467.915.915.508.448-.406.897-.09.897-.738 0-.647.67-2.15 1.64-1.773.972.376 1.77.14 1.995.291.224.151.762.899 1.18.899.419 0 .628.436.658 1.069.03.633-.135.693.254.768.388.076.538.362.344.738-.195.377-.18.211-.15.603.03.391-.388 2.7-1.674 2.927-1.285.225-2.504.105-2.175-.332.33-.437.784-.94.112-1.045-.673-.105-1.097-.195-1.77-.014-.672.18-1.374.467-1.793-.075-.418-.543-.328-.934-.672-1.19-.344-.256-.763-.211-.419-.708.344-.497.628-.311.344-.703-.284-.392-1.356-.562-1.356-.954 0-.391-.681-1.25.2-1.174z" fill="#fff"/>
      <path d="M5.448 4.934s1.29.707 1.47.903c.18.196.467.915.915.508.448-.406.897-.09.897-.738 0-.647.67-2.15 1.64-1.773.972.376 1.77.14 1.995.291.224.151.762.899 1.18.899.419 0 .628.436.658 1.069.03.633-.135.693.254.768.388.076.538.362.344.738-.195.377-.18.211-.15.603.03.391-.388 2.7-1.674 2.927-1.285.225-2.504.105-2.175-.332.33-.437.784-.94.112-1.045-.673-.105-1.097-.195-1.77-.014-.672.18-1.374.467-1.793-.075-.418-.543-.328-.934-.672-1.19-.344-.256-.763-.211-.419-.708.344-.497.628-.311.344-.703-.284-.392-1.356-.562-1.356-.954 0-.391-.681-1.25.2-1.174z" fill="#F5F8FB"/>
    </g>
  </g>
  <defs>
    <filter id="AQ_-_Antarctica__filter0_d" x="3.997" y="2.774" width="11.889" height="9.466" filterUnits="userSpaceOnUse" color-interpolation-filters="sRGB">
      <feFlood flood-opacity="0" result="BackgroundImageFix"/>
      <feColorMatrix in="SourceAlpha" values="0 0 0 0 0 0 0 0 0 0 0 0 0 0 0 0 0 0 127 0"/>
      <feOffset/>
      <feGaussianBlur stdDeviation=".5"/>
      <feColorMatrix values="0 0 0 0 0.0941176 0 0 0 0 0.32549 0 0 0 0 0.639216 0 0 0 0.43 0"/>
      <feBlend in2="BackgroundImageFix" result="effect1_dropShadow"/>
      <feBlend in="SourceGraphic" in2="effect1_dropShadow" result="shape"/>
    </filter>
  </defs>
</svg>
